X: 2
T: Drummond Castle
R: jig
M: 6/8
L: 1/8
K: Amin
A3 a3 | age g3| c3 edc | Bcg edB |
A3 a2a| age g2 g | ege deg |edB Acd :|
c3 edc | dDd dDd |c3 edc | Bdg dBG |
c3 edc | Bdg a2 g |ege deg | edB c2 B:|


Tune 2540	Setting 2540

